<?xml version="1.0" encoding="UTF-8"?>
<map version="1.10" tiledversion="1.12.1" orientation="orthogonal" renderorder="right-down" width="15" height="15" tilewidth="64" tileheight="64" infinite="0" nextlayerid="3" nextobjectid="1">
 <tileset firstgid="1" source="Scene Overview.tsx"/>
 <tileset firstgid="325" source="dark_grass.tsx"/>
 <tileset firstgid="326" source="TX Plant with Shadow.tsx"/>
 <tileset firstgid="390" source="mountain.tsx"/>
 <layer id="1" name="Tile Layer 1" width="15" height="15">
  <data encoding="csv">
325,325,325,325,325,325,325,325,325,325,325,325,325,325,325,
325,325,325,325,325,325,325,325,325,325,325,325,325,325,325,
325,325,325,325,325,325,325,325,325,325,325,325,325,325,325,
325,325,325,325,325,325,325,325,325,325,325,325,325,325,325,
325,325,325,325,325,325,325,325,325,325,325,325,325,325,325,
325,325,325,325,325,325,325,325,325,325,325,325,325,325,325,
325,325,325,325,325,325,325,325,325,325,325,325,325,325,325,
325,325,325,325,325,325,325,325,325,325,325,325,325,325,325,
325,325,325,325,325,325,325,325,325,325,325,325,325,325,325,
325,325,325,325,325,325,325,325,325,325,325,325,325,325,325,
325,325,325,325,325,325,325,325,325,325,325,325,325,325,325,
325,325,325,325,325,325,325,325,325,325,325,325,325,325,325,
325,325,325,325,325,325,325,325,325,325,325,325,325,325,325,
325,325,325,325,325,325,325,325,325,325,325,325,325,325,325,
325,325,325,325,325,325,325,325,325,325,325,325,325,325,325
</data>
 </layer>
 <layer id="2" name="2nd layer" width="15" height="15">
  <data encoding="csv">
330,331,0,413,414,0,0,0,330,331,0,413,414,330,331,
338,339,421,422,423,424,417,418,338,339,421,422,423,338,339,
428,429,430,431,432,433,426,427,428,429,430,431,432,433,434,
338,339,331,0,0,0,0,1,1,0,0,0,350,330,331,
346,347,339,0,0,0,0,0,0,0,0,0,0,338,339,
326,327,347,0,0,0,0,0,0,0,0,0,330,331,0,
334,335,0,0,0,0,0,0,0,0,0,0,338,339,355,
342,343,331,0,0,0,0,0,0,0,0,0,346,347,0,
351,338,339,0,0,0,0,0,0,0,0,0,0,0,0,
0,346,347,0,0,0,0,0,0,0,0,0,330,331,351,
330,331,0,0,0,0,0,0,0,0,0,0,338,339,0,
338,339,0,0,0,0,0,1,1,0,0,0,351,328,329,
350,326,327,328,329,0,330,331,350,0,350,0,353,336,337,
0,334,335,336,337,0,338,339,0,330,331,326,0,350,345,
350,342,343,344,345,0,346,347,0,338,339,0,350,353,354
</data>
 </layer>
</map>
