<?xml version="1.0" encoding="UTF-8"?>
<map version="1.10" tiledversion="1.12.1" orientation="orthogonal" renderorder="right-down" width="25" height="25" tilewidth="64" tileheight="64" infinite="0" nextlayerid="4" nextobjectid="1">
 <tileset firstgid="1" source="TX Tileset Grass.tsx"/>
 <tileset firstgid="17" source="TX Plant with Shadow.tsx"/>
 <tileset firstgid="81" source="TX Props.tsx"/>
 <tileset firstgid="145" source="Scene Overview.tsx"/>
 <layer id="1" name="Tile Layer 1" width="25" height="25">
  <data encoding="csv">
2,2,2,2,2,2,2,2,2,2,2,2,2,2,2,2,2,2,2,2,2,2,2,2,2,
2,2,2,2,2,2,2,2,2,2,2,2,2,2,2,2,2,2,2,2,2,2,2,2,2,
2,2,2,1,2,2,2,2,2,2,2,2,2,2,2,2,2,2,2,2,2,2,2,2,2,
2,2,2,2,2,2,2,2,2,2,2,2,2,2,2,1,2,2,2,2,2,2,2,2,2,
2,1,2,2,2,2,2,1,2,2,2,2,2,1,2,2,2,2,2,2,2,2,2,2,2,
2,2,2,2,2,2,2,2,2,2,2,2,2,2,2,2,2,2,2,2,2,2,2,2,2,
2,2,2,2,2,2,2,2,2,2,2,2,2,2,2,2,2,2,2,2,1,2,2,2,2,
2,2,2,2,2,2,2,2,2,1,2,2,7,2,2,2,2,2,2,2,2,2,2,2,2,
2,2,2,7,2,2,2,2,2,2,2,2,2,2,2,2,1,2,2,2,2,2,2,2,2,
2,2,2,2,2,2,2,2,2,2,2,2,2,2,1,1,2,2,2,2,2,2,2,2,2,
2,2,2,2,2,2,2,2,2,2,2,2,2,2,2,2,2,2,2,2,1,2,2,2,2,
2,2,2,2,2,2,2,2,2,2,2,2,2,2,2,2,2,2,7,2,2,2,2,2,2,
2,2,2,2,2,2,1,2,2,2,2,1,2,2,2,2,2,2,2,7,2,2,2,2,2,
2,2,2,2,2,2,2,2,2,2,2,2,2,2,2,2,7,2,2,2,2,1,2,2,2,
2,2,2,1,2,2,2,2,2,2,2,2,2,2,2,2,2,2,2,2,2,2,2,2,2,
2,2,2,2,2,2,2,2,2,2,2,2,2,2,2,2,2,2,2,1,2,2,2,2,2,
2,1,2,2,2,2,2,2,2,2,2,2,2,2,1,1,2,2,2,2,2,2,2,2,2,
2,1,2,2,2,2,1,2,2,2,2,2,2,2,2,2,2,2,2,2,2,2,2,2,2,
2,1,2,2,2,2,2,2,2,2,1,2,2,2,2,2,2,2,2,2,2,2,2,2,2,
2,1,2,2,2,2,2,2,2,2,2,2,2,2,2,2,1,2,2,2,2,2,2,2,2,
2,2,2,2,2,2,2,2,2,2,1,2,2,2,2,2,2,2,2,2,2,2,1,2,2,
2,2,2,2,2,2,2,2,2,2,2,2,2,2,2,2,2,2,1,2,2,2,2,2,2,
2,2,2,2,2,2,2,2,2,2,2,2,2,2,2,2,2,2,2,2,2,2,2,2,2,
2,2,2,2,2,2,2,1,2,2,2,2,2,2,2,2,2,2,2,2,2,2,2,2,2,
2,2,2,2,2,2,2,2,2,2,2,2,2,2,2,2,2,2,2,2,2,2,2,2,2
</data>
 </layer>
 <layer id="3" name="grass" width="25" height="25">
  <data encoding="csv">
7,7,7,15,15,7,15,7,7,7,7,7,15,7,15,15,15,0,15,0,0,15,0,0,15,
15,129,15,15,15,9,9,9,16,9,9,9,9,9,9,137,9,15,9,9,9,9,9,9,0,
139,137,9,9,9,9,9,9,9,9,9,9,9,9,9,9,9,9,9,9,9,9,9,15,15,
0,15,9,1,0,0,1,1,1,1,1,145,145,145,0,1,0,0,0,0,0,0,9,16,16,
15,15,9,1,0,0,1,1,1,1,1,145,145,145,1,1,1,1,1,0,0,0,9,16,16,
17,18,9,1,0,0,0,0,0,0,0,0,0,0,0,0,0,0,1,1,1,0,9,15,15,
25,26,9,1,0,0,0,0,0,0,0,0,0,0,0,0,0,0,0,1,1,0,9,16,16,
33,34,9,1,0,0,0,0,0,1,1,1,1,1,1,1,0,0,0,1,0,0,9,15,0,
0,15,9,1,0,0,0,0,0,0,1,1,1,0,0,1,1,1,1,1,1,0,9,9,0,
43,9,9,1,0,0,0,0,0,0,0,0,1,1,1,1,1,0,0,1,1,0,9,43,16,
0,15,9,1,0,0,0,0,0,0,0,0,0,0,0,0,1,1,0,1,1,0,9,16,16,
0,9,9,1,0,0,0,0,0,0,0,0,0,0,0,0,0,0,1,0,1,0,9,15,0,
0,15,9,1,0,0,1,1,1,1,1,1,1,1,1,1,0,0,1,1,1,1,9,0,15,
0,15,9,1,0,0,1,0,0,0,0,0,0,0,0,1,1,0,0,0,0,1,9,15,0,
43,9,9,1,0,0,1,0,0,0,0,0,0,0,0,0,1,0,0,0,1,1,9,0,43,
0,9,9,1,0,0,1,0,0,0,0,0,0,0,0,0,1,1,1,1,1,0,9,21,20,
0,9,9,1,0,0,1,0,0,0,0,0,1,1,1,1,1,1,1,0,0,0,9,29,28,
5,9,9,1,0,0,1,1,0,0,1,1,1,0,0,0,0,0,1,1,0,0,9,35,36,
139,129,9,1,0,0,0,1,1,1,1,1,1,1,1,1,1,0,0,1,1,0,9,0,15,
95,137,9,1,0,0,0,0,0,0,0,1,1,1,1,1,1,0,0,0,1,1,9,16,16,
0,43,9,1,0,0,0,0,0,1,1,145,145,145,0,0,0,0,0,0,0,1,9,16,0,
9,15,9,1,1,1,1,1,1,1,0,145,145,145,1,1,1,1,1,1,1,1,9,0,15,
15,9,9,9,9,9,9,9,9,9,9,9,9,9,9,9,9,9,9,9,9,9,9,16,0,
15,15,16,16,16,16,15,7,15,16,16,0,16,16,0,0,0,15,16,0,15,0,141,0,141,
0,15,16,0,15,15,0,15,0,43,15,16,0,0,15,15,0,43,16,0,0,141,0,43,0
</data>
 </layer>
</map>
